Hatter-kde-dark/actions/16/im-ban-kick-user.svg

<svg xmlns="http://www.w3.org/2000/svg" viewBox="0 0 16 16">
  <defs id="defs3051">
    <style type="text/css" id="current-color-scheme">
      .ColorScheme-Text {
        color:#dedede;
      }
      .ColorScheme-NegativeText {
        color:#da4453;
      }
      </style>
  </defs>
  <path
     style="fill:currentColor;fill-opacity:1;stroke:none" 
     class="ColorScheme-NegativeText"
    d="M8 2A6 5.99997 0 0 0 2 8 6 5.99997 0 0 0 8 14 6 5.99997 0 0 0 14 8 6 5.99997 0 0 0 8 2M8 3A5 4.999975 0 0 1 13 8 5 4.999975 0 0 1 8 13 5 4.999975 0 0 1 3 8 5 4.999975 0 0 1 8 3M5.548828 4.841797A4 4 0 0 0 4.84375 5.550781L7.293 8 4.842 10.451A4 4 0 0 0 5.550781 11.15625L8 8.707 10.451 11.158A4 4 0 0 0 11.15625 10.449219L8.707 8 11.158 5.549A4 4 0 0 0 10.449219 4.84375L8 7.293z" />
</svg>

<?xml version="1.0" encoding="UTF-8"?>
<svg viewBox="0 0 16 16" xmlns="http://www.w3.org/2000/svg">
 <defs id="defs3051">
  <style id="current-color-scheme" type="text/css">.ColorScheme-Text {
        color:#dedede;
      }
      .ColorScheme-NegativeText {
        color:#da4453;
      }</style>
 </defs>
 <path class="ColorScheme-NegativeText" d="m8 2a6 6 0 0 0-6 6 6 6 0 0 0 6 6 6 6 0 0 0 6-6 6 6 0 0 0-6-6m0 1a5 5 0 0 1 5 5 5 5 0 0 1-5 5 5 5 0 0 1-5-5 5 5 0 0 1 5-5m-2.4512 1.8418a4 4 0 0 0-0.70508 0.70898l2.4492 2.4492-2.451 2.451a4 4 0 0 0 0.70878 0.70525l2.4492-2.4492 2.451 2.451a4 4 0 0 0 0.70525-0.70878l-2.4492-2.4492 2.451-2.451a4 4 0 0 0-0.70878-0.70525l-2.4492 2.4492z" fill="currentColor"/>
</svg>
